X:1
T:Alpha, 886 D
T:Alpha, 886 D
T:Sabbath School Melodist, 1850
T:Public Domain Courtesy of the Cyber Hymnal™
C:Sabbath School Melodist, 1850
Z:Public Domain
Z:Courtesy of the Cyber Hymnal™
%%score ( 1 2 ) ( 3 4 )
L:1/8
Q:1/4=105
M:4/4
K:F
V:1 treble 
V:2 treble 
V:3 bass 
V:4 bass 
V:1
 [Ac]2 | [Ac]3 [Ac] ([^G=B][Ac]) ([_Bd][Ac]) | [Gc]3 [GB] [FA]2 [FA]2 | [EG]3 [FA] [GB]2 [EG]2 | %4
 [FA]3 [GB] [Ac]2 [FA]2 | [EG]2 [Gc]2 (c=B) (AB) | [Ec]6 [Ac]2 | %7
 [Ac]3 [Ac] ([^G=B][Ac]) ([_Bd][Ac]) | [Gc]3 [GB] [FA]2 [FA]2 | [EG]3 [FA] [GB]2 [EG]2 | %10
 [FA]3 [GB] [Ac]2 [FA]2 | [EG]2 (FG) [FA]2 G2 | [CF]6 |] %13
V:2
 x2 | x8 | x8 | x8 | x8 | x4 F2 F2 | x8 | x8 | x8 | x8 | x8 | x2 F2 x (EC) x | x6 |] %13
V:3
 F,2 | F,3 F, F,2 (F,A,) | [C,C]3 [C,C] [F,C]2 [F,C]2 | [C,C]3 [C,C] [C,C]2 [C,C]2 | %4
 [F,C]3 [F,C] [F,C]2 [F,C]2 | [C,C]2 [E,C]2 [G,D]2 [G,,D]2 | [C,C]6 F,2 | F,3 F, F,2 (F,A,) | %8
 [C,C]3 [C,C] [F,C]2 [F,C]2 | [C,C]3 [C,C] [C,C]2 [C,C]2 | [F,C]3 [F,C] [F,C]2 [F,C]2 | %11
 [C,C]2 (A,B,) [C,C]2 [C,B,]2 | [F,A,]6 |] %13
V:4
 F,2 | F,3 F, F,2 F,2 | x8 | x8 | x8 | x8 | x6 F,2 | F,3 F, F,2 F,2 | x8 | x8 | x8 | x2 D,2 x4 | %12
 x6 |] %13

